svgs/sharp-solid/utensils.svg

<svg xmlns="http://www.w3.org/2000/svg" viewBox="0 0 448 512"><!--! Font Awesome Pro 6.6.0 by @fontawesome - https://fontawesome.com License - https://fontawesome.com/license (Commercial License) Copyright 2024 Fonticons, Inc. --><path d="M64 160L64 0 32 0 0 160c0 47.6 34.6 87.1 80 94.7L80 480l0 32 64 0 0-32 0-225.3c45.4-7.6 80-47.1 80-94.7L192 0 160 0l0 160-16 0L128 0 96 0 80 160l-16 0zM448 0C416 0 288 32 288 176l0 176 96 0 0 128 0 32 64 0 0-32 0-128 0-112 0-32L448 0z"/></svg>

<svg xmlns="http://www.w3.org/2000/svg" viewBox="0 0 448 512"><!--! Font Awesome Pro 6.4.0 by @fontawesome - https://fontawesome.com License - https://fontawesome.com/license (Commercial License) Copyright 2023 Fonticons, Inc. --><path d="M64 160V0H32L0 160c0 47.6 34.6 87.1 80 94.7V480v32h64V480 254.7c45.4-7.6 80-47.1 80-94.7L192 0H160V160H144L128 0H96L80 160H64zM448 0C416 0 288 32 288 176V352h96V480v32h64V480 352 240 208 0z"/></svg>
